X:1
T:Title
%%score ( 1 2 ) { 3 | 4 }
L:1/8
Q:1/4=107
M:4/4
K:Bb
V:1 treble nm="Grand Piano, Staff 1"
V:2 treble 
V:3 bass nm="Choir Pad, Wilhelm, LMD"
V:4 bass 
V:1
 F2 B,2- B,/ z/ D F2 | F2 D2- D/ z/ [DG] [DB]2 | [DB]2 [Ec]2 [Fd]2 [Ee]2 | %3
w: By~Arranged~from~Karl~Wilhelm~(1815\-1873) * * * *|||
 [Ec]2 [DB]2- [DB][CA] [CA]2 | F2 [Fd]2- [Fd][Fd] [Fc]>[Fc] | [F=B]>[FB] [Fc]6 | %6
w: |||
 [FA]2 [FG]>[FG] [^FA]>[GB] [=FA]2 | [=EG]2 F6 | F2 [Ec]2- [Ec][DB] [FA]2 | %9
w: |||
 [FA]2 [FB]2- [FB][DF] [DF]2 | F2 [Fe]2- [Fe][Fd] [Fc]2 | [Fc]2 [Fd]2- [Fd][Ec] [DB]2- | %12
w: |||
 [DB]2 [DF]4 [DF]2 | [D^F]2 [EG]2- [EG][=FA] [DB]2 | [DB]2 [DB]4 [Gc]2- | [Gc]2 [^Fd]6- | %16
w: ||||
 [Fd]2 B4 [AB]2 | [GB]2 B2- Bd f2 | [Ge]2 [Fd]4 [Ec]2- | [Ec]2 [DB]6- | [DB]2 z2 z4 |] %21
w: |||||
V:2
 x8 | x8 | x8 | x8 | x8 | x8 | x8 | x8 | x8 | x8 | x8 | x8 | x8 | x8 | x8 | x8 | x8 | z2 F6 | x8 | %19
 x8 | x8 |] %21
V:3
 F,2 B,,2- B,,/ z/ D, F,2 | F,2 D,2- D,/ z/ F, G,2 | G,2 G,2 =B,2 C2 | G,2 F,2- F,/ z/ F, F,2 | %4
 F,2 B,2- B,B, A,>A, | G,>G, A,6 | C2 D>D D>D C2 | B,2 A,6 | F,2 A,2- A,B,[K:treble] C2 | %9
 E2 D2- DB,[K:bass] B,2 | F,2 C2- CB, A,2 | A,2 B,2- B,F, F,2- | F,2 F,4 F,2 | ^F,2 G,2- G,A, B,2 | %14
 B,2 B,4 G,2- | G,2 A,6- | A,2 B,4 B,2 | B,2 B,6 | B,2 B,4 A,2- | A,2 B,6- | B,2 z2 z4 |] %21
V:4
 z8 | z4 z B,, G,,2 | z2 E,2 D,2 C,2 | E,2 z2 z4 | z2 B,,2- B,,B,, C,>C, | D,>D, F,6 | %6
 F,2 B,>B, A,>G, z2 | C,2 F,,6 | z2 F,2- F,F, F,2 | F,2 B,,2- B,,B,, B,,2 | z2 F,2- F,F, F,2 | %11
 F,,2 B,,2- B,,B,, B,,2- | B,,2 B,,4 B,,2 | B,,2 E,2- E,C, B,,2 | B,,2 G,4 E,2- | E,2 D,6- | %16
 D,2 G,4 F,2 | E,2 D,6 | E,2 F,4 F,,2- | F,,2 B,,6- | B,,2 z2 z4 |] %21

